!!!COM: Music21
!!!OTL: Baixando para a Salgueira
!!!OMV: pezas_pasodobles_baixando-para-a-salgueira_baixando-para-a-salgueira-partitura.musicxml
**kern
*part1
*staff1
*I"Bagpipes
*I'Bag
*clefG^2
*k[]
*M2/4
=1
!LO:TX:a:t=Allegretto
*MM120
!LO:TX:a:t=[quarter]=120
8r
8ccc
8bbL
8cccJ
=||
8.bbL
16aaJk
8ggL
8aaJ
=
8bbL
8cccJ
8bbL
8cccJ
=
8.bbL
16aaJk
[4gg
=
8ggL]
8cccJ
8bbL
8cccJ
=
8.bbL
16aaJk
8ggL
8aaJ
=
8bbL
8cccJ
8bbL
8ggJ
!!linebreak:original
=
16aaLL
16bb
16aa
16ggJJ
[4ff
!!linebreak:original
=
8ffL]
8bbJ
8aaL
8bbJ
=
8.aaL
.
16ggJk
8ffL
8ggJ
=
8aaL
8cccJ
8bbL
8cccJ
=
8.aaL
16ggJk
[4ff
=
8ffL]
8bbJ
8aaL
8bbJ
=
8.aaL
.
16ggJk
8ffL
8ggJ
=
8aaL
8cccJ
8bbL
8aaJ
=
16ggLL
16aa
16gg
16ffJJ
[4ee
!!linebreak:original
=
8eeL]
8cccJ
8bbL
8cccJ
=||
8.bbL
16aaJk
8ggL
8aaJ
=
8bbL
8cccJ
8bbL
8cccJ
=
8.bbL
16aaJk
[4gg
=
8ggL]
8cccJ
8bbL
8cccJ
=
8.bbL
16aaJk
8ggL
8aaJ
=
8bbL
8cccJ
8bbL
8ggJ
=
16aaLL
16bb
16aa
16ggJJ
[4ff
!!linebreak:original
=
8ffL]
8bbJ
8aaL
8bbJ
=
8.aaL
.
16ggJk
8ffL
8ggJ
=
8aaL
8cccJ
8bbL
8cccJ
=
8.aaL
16ggJk
[4ff
=
8ffL]
8bbJ
8aaL
8bbJ
=
8.aaL
.
16ggJk
8ffL
8ggJ
=
8aaL
8cccJ
8bbL
8aaJ
!!pagebreak:original
=
16ggLL
16aa
16gg
16ffJJ
[4ee
=
*M6/8
!LO:TX:a:t=Presto
*MM180
!LO:TX:a:t=[quarter]=180
4ee]
8ee
8ggL
8ee
8ggJ
=||
8ddL
8ee
8ffJ
8ggL
8aa
8ggJ
=
8ffL
8gg
8aaJ
8bbL
8ccc
8aaJ
=
4gg
8ff
4.ee
=
8cccL
8gg
8aaJ
8cccL
8bb
8aaJ
!!linebreak:original
=
4gg
8ff
8ddL
8ee
8ffJ
!!linebreak:original
=
4.bb
8ggL
8aa
8bbJ
=
4aa
[8gg
4.gg_
=
4gg]
8ee
8ggL
8ee
8ggJ
=
8ddL
8ee
8ffJ
8ggL
8aa
8ggJ
=
8ffL
8gg
8aaJ
8bbL
8ccc
8aaJ
=
4gg
8ff
4.ee
=
8ggL
8aa
8ggJ
8eeL
8ff
8ggJ
!!linebreak:original
=
4aa
8ff
4aa
8ff
=
8bbL
8ccc
8bbJ
8aaL
8gg
8bbJ
=
[2.ccc
=
4ccc]
8ee
8ggL
8ee
8ggJ
=||
8ddL
8ee
8ffJ
8ggL
8aa
8ggJ
=
8ffL
8gg
8aaJ
8bbL
8ccc
8aaJ
=
4gg
8ff
4.ee
!!linebreak:original
=
8cccL
8gg
8aaJ
8cccL
8bb
8aaJ
=
4gg
8ff
8ddL
8ee
8ffJ
!!linebreak:original
=
4.bb
8ggL
8aa
8bbJ
=
4aa
[8gg
4.gg_
=
4gg]
8ee
8ggL
8ee
8ggJ
=
8ddL
8ee
8ffJ
8ggL
8aa
8ggJ
=
8ffL
8gg
8aaJ
8bbL
8ccc
8aaJ
=
4gg
8ff
4.ee
=
8ggL
8aa
8ggJ
8eeL
8ff
8ggJ
!!pagebreak:original
=
*M3/4
4aa
4ff
4aa
=
4bb
4aa
4bb
=
[2.ccc
=
*M2/4
!LO:TX:a:t=Allegretto
*MM120
!LO:TX:a:t=[quarter]=120
8cccL]
8ccJ
8eeL
8ggJ
=||
4.ccc
8gg
!!pagebreak:original
=
4.ee
8gg
=
8aaL
8cccJ
8bbL
8ggJ
=
4.ff
8bb
=
8bbL
8ddJ
8cccL
8aaJ
=
8cccL
8bbJ
8ggL
8bbJ
=
8aaL
8ffJ
8aaL
8ggJ
=
8eeL
8ccJ
8eeL
8ggJ
=
4.ccc
8gg
=
4.ee
8gg
!!linebreak:original
=
8aaL
8ggJ
8bbL
8ggJ
!!linebreak:original
=
4.ff
8bb
=
8bbL
8ddJ
8cccL
8aaJ
=
8cccL
8bbJ
8ggL
8bbJ
=
8aaL
8ggJ
8aaL
8bbJ
=
[2ccc
=
8cccL]
8ccJ
8eeL
8ggJ
=||
4.ccc
8gg
!!pagebreak:original
=
4.ee
8gg
=
8aaL
8cccJ
8bbL
8ggJ
=
4.ff
8bb
=
8bbL
8ddJ
8cccL
8aaJ
=
8cccL
8bbJ
8ggL
8bbJ
=
8aaL
8ffJ
8aaL
8ggJ
=
8eeL
8ccJ
8eeL
8ggJ
=
4.ccc
8gg
=
4.ee
8gg
!!linebreak:original
=
8aaL
8ggJ
8bbL
8ggJ
!!linebreak:original
=
4.ff
8bb
=
8bbL
8ddJ
8cccL
8aaJ
=
8cccL
8bbJ
8ggL
8bbJ
=
8aaL
8ggJ
8aaL
8bbJ
=||
[2ccc
=
8cccL]
8cccJ
8bbL
8cccJ
=||
[2ccc
=
8ccc]
8r
4r
==
*-
!!!system-decoration: s1,s2
